X:1
T:Cantan fra rami
T:Cantan fra rami
T:Vincentio Ruffo
T:Source : Symphonia Angelica---Anversa---P.Phalesio & G.Bellero---1585. Editor: André Viezrendeels (16/01/14).
C:Vincentio Ruffo
%%score [ 1 2 [ 3 4 ] ]
L:1/8
Q:1/4=90
M:4/4
K:F
V:1 treble nm="Canto" snm="C"
V:2 treble nm="Alto" snm="A"
V:3 treble-8 nm="Tenor 1" snm="T 1"
V:4 treble-8 nm="Tenor 2" snm="T 2"
V:1
 z8 | A3 B c2 d2- | d2 c4 B2 | c4 z2 c2- | c2 G2 A2 B2 | c3 F B4 | A4 z2 c2- | c2 B2 A2 c2- | %8
w: |Can- * tan fra|_ ra- *|mi gl'au-|* ge let- ti|va- * *|ghi, a-|* zu- ri'e bian-|
 c2 A2 d4 | c2 f4 e2 | d2 c3 B B2 | c4 z2 c2- | c2 F2 G2 A2 | B3 c de fd | e2 f3 e/d/ e2 | f4 c4- | %16
w: * chi, ros-|si, ver- di'e|gial- * * *|li, ros-|* si, ver- di'e|gial- * * * * *||li, mor-|
 c2 c2 c4 | B4 A4 | c8 | c4 d4- | d4 c4 | c4 B4 | A4 A4- | A4 A4 | A4 G4- | G4 E4 | z4 z2 A2 | %27
w: * mo- ran-|ti ruis-|cel-|li e|_ chet-|it la-|ghi, e|_ chiet-|ti la-|* ghi,|de|
 A2 F2 G2 A2 | B6 A2 | G2 F3 E/D/ E2 | F8- | F4 z2 A2- | A2 A2 B4 | B8 | B4 z2 d2 | d2 e4 d2 | %36
w: lim- pi- dez- za|vin- co-|n'i cri- stal- * *|li,|_ u-|* na dol-|c'au-|ra che|ti par che|
 c3 A B4 | A8 | z2 c2 d2 c2 | f3 e d2 c2- | cB/A/ B2 c4- | c4 z2 F2 | B2 c2 d4- | d2 B2 _e4 | %44
w: va- * *|ghi,|a'un mo- do|sem- * * *|* * * * pre|_ e|dal suo stil|_ non fal-|
 d4 z2 c2 | d2 e2 f3 e | d2 c2 B4 | A4 A4 | A4 A4 | c4 A2 B2- | B2 G2 G4 | F4 B4 | A4 z2 c2 | %53
w: li, e|dal suo stil _|_ non fal-|li, fa-|cea si|l'a- ria tre-|* mo- lar|d'in- tor-|no, che|
 c2 A2 B2 c2 | c3 B A2 c2- | c2 B2 c4 | z2 c2 c2 A2 | B2 c2 c3 B | A2 c4 B2 | c8 | c8- | c8- | %62
w: non po- tra no-|iar ca- lor del|_ gior- no,|che non po-|tra no- iar ca-|lor del gior-|no.|_||
 c8- | c8- | c8 |] %65
w: |||
V:2
 z8 | F3 G A2 B2 | F2 A4 GF | G4 A4 | G3 F E2 D2 | C2 F3 E/D/ E2 | F4 A4 | G2 F2 A4 | G2 F4 B2 | %9
w: |Can- * tan fra|ra- * * *|* mi|gl'au- ge- let- ti|va- * * * *|ghi, a-|zu- ri'e bian-|chi, ros- si,|
 A4 G3 A | B2 c2 F4 | G4 A4 | z2 B4 A2 | G4 F2 c2- | c2 B2 c4 | A4 A4- | A2 A2 G4 | G4 E4 | A8 | %19
w: ver- di'e _|_ gial- *|* li,|ros- si,|ver- di'e gial-||li, mor-|* mo- ran-|ti ruis-|cel-|
 G4 B4- | B4 A4 | G4 G4 | E8 |"^-natural" C4 F4- | F2 E2 D4 | E4 z2 E2 | E2 C2 D2 E2 | F3 E D2 C2 | %28
w: li e|_ chet-|ti la-|ghi,|e chiet-|* ti la-|ghi, de|lim- pi- dez- za|vin- co- n'i cri-|
 G4 C4 | z2 A4 G2 | F3 E D2 C2 | D4 C2 F2- | F2 F2 F4 | G8 | F4 B4- | B2 G2 c2 B2 | A4 G4 | %37
w: stal- li,|vin- co-|n'i _ _ cri-|stal- li, u-|* na dol-|c'au-|ra che|_ ti par che|va- ghi,|
 z2 C2 D2 C2 | F3 G A2 G2 | z2 C2 D2 E2 | F4 G4 | A4 z2 C2 | F2 G2 A4 | B4 G3 A | B4 A4 | %45
w: a'un mo- do|sem- * * pre,|a'un mo- do|sem- *|pre e|dal suo stil|non fal- *|* li,|
 z2 G2 A2 F2 | G2 A3 G/F/ G2 | A4 F4 | F4 F2 E2- | E2 A4 G2- | G2 E2 E4 | D4 F4- | F4 E4 | %53
w: e dal suo|stil non _ _ fal-|li, fa-|cea si l'a-|* ria tre-|* mo- lar|d'in- tor-|* no,|
 z2 F2 F2 E2 | A3 G F2 E2 | F2 D2 C2 F2 | E2 G2 A3 G | F2 E2 A3 G | F2 E2 F2 D2 | C2 A2 G2 G2 | %60
w: che non po-|tra no- iar ca-|lor del gior- *|no, che non po-|tra no- iar ca-|lor del gior- *|no, che non po-|
 A4 F4 | E4 z2 E2 | F2 G2 A3 G/F/ | E4 A4 | G8 |] %65
w: tra no-|iar ca-|lor del gior- * *||no.|
V:3
 A3 B c2 d2 | c4 f4 | z2 f4 d2 | e2 e2 f4 | c4 z2 f2- | fe c2 d2 B2 | c4 A2 f2 | e2 d2 f4 | %8
w: Can- * tan fra|ra- mi|gl'au- ge-|let- ti va-|ghi, gl'au-|* ge- let- ti va-|* ghi, a-|zu- ri'e bian-|
 c2 d4 B2 | f4 c4 | z2 c2 d2 f2- | fe/d/ e2 f4 | f4 z4 | z2 b4 a2 | g2 f2 g4 | f4 f4- | f2 f2 e4 | %17
w: chi, ros- si,|ver- di|e gial- *||li,|ros- si,|ver- di'e gial-|li, mor-|* mo- ran-|
 d4 c4- | c4 f4 | e4 f4- | f4 f4 | e4 d4- |"^-natural""^#" d2 cB c4 | z2 A4 d2- | d2 c4 B2 | %25
w: ti ruis-|* cel-|li e|_ chet-|ti la-|* * * ghi,|e chet|_ ti la-|
 c2 g2 g2 g2 | a3 g f2 e2 | d2 a2 g2 f2- | fe/d/ e2 f2 c2 | c2 d2 c3 B | A2 F2 B2 A2 | B4 A2 c2- | %32
w: ghi, de lim- pi-|dez- za vin- co-|n'i cri- stal- *|* * * * li, de|lim- pi- de- za|vin- co- n'i cri-|stal- li, u-|
 c2 c2 d4 | _e8 | d2 f4 d2 | g6 g2 | e2 f3 e/d/ e2 | f4 z2 c2 | d2 c2 f2 e2 | d2 A2 z2 c2 | %40
w: * na dol-|c'au-|ra che ti|par che|va- * * * *|ghi, a'un|mo- do sem- *|* pre, a'un|
 de f3 e/d/ e2 | f8 | z2 c2 f2 f2 | g6 c2 | f6 e2 | z2 c2 c2 A2 | B2 c2 d2 e2 | f4 c4 | c4 d2 c2- | %49
w: mo- do sem- * * *|pre|e dal suo|stil non|fal- li,|e dal suo|stil non fal- *|li, fa-|cea si l'a-|
 c2 f4 d2- | d2 c2 c4 | A4 d4 | c4 z2 c2 | f3 e d2 c2 | F2 f2 f2 g2 | a2 gf e2 a2 | g2 e2 f3 e | %57
w: * ria tre-|* mo- lar|d'in- tor-|no, che|non po- tra no-|iar ca- lor del|gior- * * no, che|non po- tra _|
 d2 c2 F2 f2 | f2 g2 a2 gf | e2 f3 e e2 | f4 a4 | g2 g2 a4- | a2 g2 f2 a2 | a2 g2 f4 | e8 |] %65
w: _ no- iar ca-|lor del gior- * *||no, che|non po- tra|_ no- iar del|gior- * *|no.|
V:4
 F3 G A2 B2 | F4 F2 B2- | B2 A2 d2 d2 | c4 F4 | z2 c4 B2 | A3 B G4 | F8 | z8 | z8 | z4 z2 c2 | %10
w: Can- * tan fra|ra- mi gl'au-|* ge- let- ti|va- ghi,|gl'au- ge-|let- ti va-|ghi,|||a-|
 B2 A2 d4 | c4 F3 G | A2 B2 G2 F2 | G3 A B2 F2 | c2 d2 c4 | F4 F4- | F2 F2 c4 | G4 A4 | F8 | %19
w: zu- ri'e bian-|chi, ros- si,|ver- di'e gial- li,|ros- si, ver- di'e|gial- * *|li, mor-|* mo- ran-|ti ruis-|cel-|
 c4 B4- | B4 F4 | c4 G4 | A4 A4- | A4 D4 | F4 G4 | C4 z2 c2 | c2 A2 B2 c2 | d3 c B2 A2 | G4 F2 F2 | %29
w: li e|_ chet-|ti la-|* ghi,|_ e|che- ti|ghi, de|lim- pi- dez- za|vin- co- n'i cri-|stal- li, de|
 E2 D2 F2 C2 | D3 C B,2 F2 | B,4 F2 F2- | F2 F2 B4 | _E8 | B4 B4 | G2 c4 G2 | A2 F2 G4 | F8- | %38
w: lim- pi- dez- za|vin- co- n'i cri-|stal- li, u-|* na dol-|c'au-|ra che|ti par che|va- * *|ghi,|
 F4 z2 c2 | d2 c2 f2 e2 | d4 c4 | z2 F2 B2 c2 | d2 e2 d4 | G2 G2 c2 c2 | B3 A/G/ F2 A2 | B2 c2 F4 | %46
w: _ a'un|mo- do sem- *|* pre|e dal suo|stil non fal-|li, e dal suo|stil _ _ _ non|fal- * li,|
 z8 | z4 F4 | F4 D2 A2- | A2 F4 G2- | G2 C2 C4 | D4 B,C DE | F4 C4 | z4 z2 c2 | c2 A2 d2 c2 | %55
w: |fa-|cea si l'a-|* ria tre-|* mo- lar|d'in- tor- * * *|* no,|che|non po- tra no-|
 F2 G2 A2 F2 | c4 F4 | z2 c2 c2 A2 | d2 c2 F2 G2 | A2 F2 c4 | F4 z2 F2 | c3 B A3 G | F2 C2 F3 G | %63
w: iar ca- lor del|gior- no,|che non po-|tra no- iar ca-|lor del gior-|no, che|non po- tra no-|iar ca- lor del|
 A2 E2 F4 | C8 |] %65
w: gior- * *|no.|

